svg/LeftHanded/row-resize.svg

<?xml version="1.0" encoding="UTF-8" standalone="no"?>
<!-- Created with Inkscape (http://www.inkscape.org/) -->

<svg
   xmlns:dc="http://purl.org/dc/elements/1.1/"
   xmlns:cc="http://creativecommons.org/ns#"
   xmlns:rdf="http://www.w3.org/1999/02/22-rdf-syntax-ns#"
   xmlns:svg="http://www.w3.org/2000/svg"
   xmlns="http://www.w3.org/2000/svg"
   xmlns:xlink="http://www.w3.org/1999/xlink"
   version="1.0"
   width="500"
   height="500"
   viewBox="0 0 1000 1000"
   id="page"
   xml:space="preserve"><metadata
     id="metadata11"><rdf:RDF><cc:Work
         rdf:about=""><dc:format>image/svg+xml</dc:format><dc:type
           rdf:resource="http://purl.org/dc/dcmitype/StillImage" /><dc:title></dc:title></cc:Work></rdf:RDF></metadata><defs
     id="defs38"><linearGradient
       id="linearGradient2218"><stop
         id="stop2220"
         style="stop-color:#999999;stop-opacity:1"
         offset="0" /><stop
         id="stop2222"
         style="stop-color:#555555;stop-opacity:1"
         offset="1" /></linearGradient><linearGradient
       x1="127.94212"
       y1="25.5625"
       x2="127.94212"
       y2="376.8125"
       id="linearGradient3031"
       xlink:href="#linearGradient2218"
       gradientUnits="userSpaceOnUse"
       gradientTransform="scale(2,2)" /><linearGradient
       x1="127.94212"
       y1="25.5625"
       x2="127.94212"
       y2="376.8125"
       id="linearGradient3031-3"
       xlink:href="#linearGradient2218-6"
       gradientUnits="userSpaceOnUse"
       gradientTransform="scale(2,2)" /><linearGradient
       id="linearGradient2218-6"><stop
         id="stop2220-7"
         style="stop-color:#999999;stop-opacity:1"
         offset="0" /><stop
         id="stop2222-9"
         style="stop-color:#555555;stop-opacity:1"
         offset="1" /></linearGradient><filter
       x="-0.2951099"
       y="-0.20223407"
       width="1.5902199"
       height="1.4044681"
       color-interpolation-filters="sRGB"
       id="filter3790"><feGaussianBlur
         id="feGaussianBlur3792"
         stdDeviation="57.510312" /></filter></defs><path
     d="m 1102.4427,993.62712 c 39.6207,-0.1226 39.6207,-71.87742 0,-72 -39.6206,-0.1226 -149.87497,-1.125 -149.87497,-9 0,-12.728 -3.79052,-67.14902 8.9375,-79.875 12.728,-12.729 50.52857,-25.0295 64.18747,-38.6875 13.081,-13.084 -113.59849,-177.6865 -127.81247,-177.6875 -12.727,0 -140.84201,164.661 -128.12499,177.375 12.72899,12.729 51.77199,26.272 64.5,39 12.728,12.728 19.3115,54.41998 19.3125,79.875 0,7.875 -121.17898,8.87694 -160,9 -38.82102,0.123 -38.82102,71.87696 0,72 38.82102,0.123 160.00002,1.125 160,8.99998 -10e-4,25.455 -6.58351,67.147 -19.3125,79.875 -12.729,12.729 -51.77101,26.271 -64.5,39 -12.717,12.714 115.39699,177.375 128.12499,177.375 14.214,0 140.89357,-164.6045 127.81247,-177.6875 -13.66,-13.659 -51.45949,-25.9585 -64.18747,-38.6875 -12.729,-12.727 -8.93752,-67.147 -8.9375,-79.875 0,-7.87498 110.25437,-8.87742 149.87497,-8.99998 z"
     transform="matrix(1.2,0,0,1.2,-578.22877,-626.77753)"
     id="path4052-2"
     style="opacity:0.15;fill:#111111;fill-opacity:1;stroke:none;filter:url(#filter3790)" /><path
     d="m 703.875,438.375 c 39.62062,-0.12256 39.62062,-71.87742 0,-72 -39.62062,-0.12258 -149.875,-1.125 -149.875,-9 0,-12.728 -3.79052,-67.14902 8.9375,-79.875 12.728,-12.729 50.52852,-25.0295 64.1875,-38.6875 C 640.206,225.7285 513.52648,61.126 499.3125,61.125 c -12.727,0 -140.84202,164.661 -128.125,177.375 12.729,12.729 51.772,26.272 64.5,39 12.728,12.728 19.3115,54.41998 19.3125,79.875 0,7.875 -121.17898,8.87694 -160,9 -38.82102,0.12306 -38.82102,71.87696 0,72 38.82102,0.12304 160.00002,1.125 160,9 -10e-4,25.455 -6.5835,67.14702 -19.3125,79.875 -12.729,12.729 -51.771,26.27102 -64.5,39 -12.717,12.714 115.397,177.37502 128.125,177.375 14.214,0 140.89352,-164.60448 127.8125,-177.6875 -13.66,-13.659 -51.45952,-25.95848 -64.1875,-38.6875 -12.729,-12.727 -8.93752,-67.14702 -8.9375,-79.875 0,-7.875 110.25438,-8.87744 149.875,-9 z"
     id="path4052"
     style="opacity:0.75;fill:url(#linearGradient3031);fill-opacity:1;stroke:#000000;stroke-width:20;stroke-linecap:round;stroke-linejoin:round;stroke-miterlimit:1;stroke-dasharray:none" /></svg>

<?xml version="1.0" encoding="UTF-8" standalone="no"?>
<!-- Created with Inkscape (http://www.inkscape.org/) -->
<svg
   xmlns:svg="http://www.w3.org/2000/svg"
   xmlns="http://www.w3.org/2000/svg"
   xmlns:xlink="http://www.w3.org/1999/xlink"
   version="1.0"
   width="500"
   height="500"
   viewBox="0 0 1000 1000"
   id="page"
   xml:space="preserve"><defs
     id="defs38"><linearGradient
       id="linearGradient2218"><stop
         id="stop2220"
         style="stop-color:#999999;stop-opacity:1"
         offset="0" /><stop
         id="stop2222"
         style="stop-color:#555555;stop-opacity:1"
         offset="1" /></linearGradient><linearGradient
       x1="127.94212"
       y1="25.5625"
       x2="127.94212"
       y2="376.8125"
       id="linearGradient3031"
       xlink:href="#linearGradient2218"
       gradientUnits="userSpaceOnUse"
       gradientTransform="scale(2,2)" /></defs><path
     d="M 703.875,438.375 C 743.49562,438.25244 743.49562,366.49758 703.875,366.375 C 664.25438,366.25242 554,365.25 554,357.375 C 554,344.647 550.20948,290.22598 562.9375,277.5 C 575.6655,264.771 613.46602,252.4705 627.125,238.8125 C 640.206,225.7285 513.52648,61.126 499.3125,61.125 C 486.5855,61.125 358.47048,225.786 371.1875,238.5 C 383.9165,251.229 422.9595,264.772 435.6875,277.5 C 448.4155,290.228 454.999,331.91998 455,357.375 C 455,365.25 333.82102,366.25194 295,366.375 C 256.17898,366.49806 256.17898,438.25196 295,438.375 C 333.82102,438.49804 455.00002,439.5 455,447.375 C 454.999,472.83 448.4165,514.52202 435.6875,527.25 C 422.9585,539.979 383.9165,553.52102 371.1875,566.25 C 358.4705,578.964 486.5845,743.62502 499.3125,743.625 C 513.5265,743.625 640.20602,579.02052 627.125,565.9375 C 613.465,552.2785 575.66548,539.97902 562.9375,527.25 C 550.2085,514.523 553.99998,460.10298 554,447.375 C 554,439.5 664.25438,438.49756 703.875,438.375 z"
     id="path4052"
     style="opacity:1;fill:url(#linearGradient3031);fill-opacity:1;stroke:#000000;stroke-width:20;stroke-linecap:round;stroke-linejoin:round;stroke-miterlimit:1;stroke-dasharray:none" /></svg>
